X:1
T:Mountain Roads
L:1/8
M:2/2
I:linebreak $
K:D
V:1 treble 
V:1
 DE | F2 AF BFAF | F2 AF EDB,D | F2 AF BFAF | (3GFE (3FED EDB,D | F2 AF BFAF |$ F2 AF EDB,D | %7
 EFGA BAFA | Bcde fd d2 || dcdA BAFA | dcde fgfe |$ dcdA BAFD | (3GFE (3FED EDB,D | dcdA BAFA | %14
 dcde fgfe | defd AFDF |$ (3GFE (3FED EDB,D || %17
